!!!OTL: Tobie nad pomysl dowczip
**kern
*staff1
=1-
*clefC3
*k[]
*met(c|)
*M2/2
2.d\
4c\
2B/
2A/
=2
1c
1d
=3
1e
2A/
2d\
=4
1G
1A
1d;
=5:|!
!!linebreak:original
1d
2c\
2c\
=6
1f-
1c
=7
2.d\
4d\
2G/
2A/
=8
1B-
1A;
!!linebreak:original
=9
1A
2G/
2B-/
=10
1A
0d
==
*-
!!title: @{OTL}, @{GTL}, ed. @{ENC}
!!!pag:
!!!GTL: Hymnbook D
!!!EFL: 
!!!YEM: Creative Commons CC/BY/NC/SA 4.0
!!!ENC: Marcin Konik
!!!END: 2015-0m-dd
!!!EED: Marcin Konik
!!!EEV: 
!!!ONB: Encoded in vim by Marcin Konik
!!!CharacterEncoding: utf-8
!!!RDF**kern: l=long note in original notation
!!!RDF**kern: i=editorial accidental
!!muse2ps: z14jc180F
!!!COM: Anonim
!!!CDT: [?]
!!!TXO: Polish
!!!ODT: 
!!!GTL: Hymnbook D
!!!ARL: Opactwo św. Wojciecha, Staniątki 
!!!voices:	1
